X:1
T:Ave maris stella - Victoria
T:#
%%score [ 1 2 3 4 ]
L:1/8
Q:1/4=200
M:none
K:C
V:1 treble nm="Soprano" snm="S"
V:2 treble nm="Alto" snm="A"
V:3 treble-8 nm="Tenor" snm="T"
V:4 bass nm="Bass" snm="B"
V:1
"^Ave maris stella""^Tomas Luis de Victoria\n(1548-1611)" D8 (A8 | B6 A2 G4) A4 | B4 (c4 d6 c2 | %3
w: A- ve,|* * * ma-|ris stel\- * *|
 B4 A8 ^G4) | A8 A8- | A4 A4 D8 | E4 F4 G4 (G4- | G4 F4 E8) | D4 F8 E4 | G4 G4 A8 | (D4 E4 F8 | %11
w: |la, De\-|* i ma-|ter * * al\-||ma, at- que|sem- per Vir-|go~, * *|
 E8 D8 | C8) E8 | G8 (E4 F4) | E8 z4 (D4 | ^C4 D8 C4) | D16 ||[Q:1/4=130] x24 x4 | %18
w: |* fe-|lix coe\- *|li por\-||ta.||
[Q:1/4=130][Q:1/4=130][Q:1/4=130][Q:1/4=130] z26 || z24 | z14 || %21
w: |||
[Q:1/4=200][Q:1/4=200][Q:1/4=200][Q:1/4=200] z16 | z16 | z4 D4 A8 | B4 G4 (A4 B4 | c4 d8 c4 | %26
w: ||Sol- ve|vin- cla re\- *||
 B4 A4 ^G4 A4- | A4 ^G4 A8- | A4 ^G2 ^F2 G8) | A16 | z4 A8 A4 | D8 E4 (G4- | G4 F4 E8) | D4 F8 E4 | %34
w: |||is,|pro- fer|lu- men cae\-||cis, ma- la|
 G8 G8 | A8 (D8 | E8 F8- | F4 E4 D8 | C8) z8 | z16 | z8 B8 | d8 B8 | c8 B8 | A8 E8 | G8 E8 | %45
w: no- stra|pel- le,|||||bo-|na cun-|cta po-|sce, bo-|na cun-|
 F8 E8 | D16 ||[Q:1/4=130] x16 x14 |[Q:1/4=130] x26 |[Q:1/4=130][Q:1/4=130][Q:1/4=130] z26 || z24 | %51
w: cta po-|sce.|||||
[Q:1/4=200] z14 x2 ||[Q:1/4=200][Q:1/4=200][Q:1/4=200] D8 A8 | (B6 A2 G4) A4 | (B4 c4 d8- | %55
w: |Vir- go|sin\- * * gu-|la\- * *|
 d4 c4 B4 A4 | ^G4 A8 G4) | (A6 GF E8) | z4 A8 G4 | A4 D4 (E4 F4 | G6 F2 E8) | D4 F8 E4 | %62
w: ||ris, * * *|in- ter|o- mnes mi- *||tis, nos cul-|
 G4 G4 A8 | (D6 E2 F4 E4 | D8 C8) | E12 G4 | E8 F8 | E16 |[Q:1/4=130] D16 x12 || %69
w: pis so- lu-|tos, * * *||mi- tes|fac et|ca-|stos.|
[Q:1/4=130] x24 x4 |[Q:1/4=130][Q:1/4=130][Q:1/4=130] z26 || z24 |[Q:1/4=400] z14 x10 | %73
w: ||||
[M:3/1][Q:1/4=400][Q:1/4=400][Q:1/4=400] D8 A16 | (B16 G8 | A8 B8 c8 | d16) ^c8 | (d12 c4 B8 | %78
w: Sit laus|De\- *||* o|Pa\- * *|
 A8 G8 F4 E4 | F4 G4 A16 | G8 F8 E8 | F16) E8- |[M:3/1] E8 z8 z8 | z8 D8 A8- | A8 (B8 G8 | %85
w: |||* tri,||sit laus|* De\- *|
 A8 B8 c8 | d16 c8- | c8 B16) | A16 ^G8 | A16 z8 | A16 G8 | A8 D8 (E8 | F8 G16) | F8 F8 E8 | %94
w: |||o Pa-|tri,|sum- mo|Chri- sto de\-||cus, sum- mo|
 F16 D8 | z8 (A12 G4 | A4 B4 c16) | A24 | z24 | z24 | z24 | z16 F8 | F16 E8 | G8 (G8 A8 | D16 E8 | %105
w: Chri- sto|de\- *||cus,||||Spi-|ri- tu-|i San\- *||
 F16 E8- | E8 D16) | E8 E8 G8 | E16 D8 | (E16 F8- | F8) E16 | z8 A8 c8 | A16 G8 | %113
w: ||cto, Tri- bus|ho- nor|u\- *|* nus,|Tri- bus|ho- nor,|
 z8[Q:1/4=397] c8[Q:1/4=391] B8 |[Q:1/4=382] c16[Q:1/4=374] A8- |[Q:1/4=368] A8[Q:1/4=360] A16 | %116
w: Tri- bus|ho- nor|* u-|
[Q:1/4=352] G8[Q:1/4=345] A16 |[Q:1/4=340] ^F24 |] %118
w: nus. A-|men.|
V:2
 z4 (D6 E2 ^F4 | G4) D4 (E4 F4 | G4 F2 E2 F8) | F8 E8 | ^C4 E8 E4 | (^F8 G6 =F2 | E4) D4 (G,6 A,2 | %7
w: A\- * *|* ve, ma\- *||ris stel-|la, De- i|ma\- * *|* ter al\- *|
 B,2 A,2 D8 ^C4) | D4 D8 C4 | E4 D4 (F2 E2 D2 C2 | B,4 C4 D8) | G,4 (G6 FE D4) | E8 (A,4 C4- | %13
w: |ma, at- que|sem- per Vir\- * * *||go, Vir\- * * *|go, fe\- *|
 C4 B,4 (C6 B,A, | G,4 C8) D4 | E4 A,4 A,8 | A,16 || x24 x4 | z26 || z24 | z14 || A,8 D8 | %22
w: * lix coe\- * *|* * li,|coe- li por-|ta.|||||Sol- ve|
 E4 C4 D4 E4 | ^F4 G8 F4 | G12 F4 | E4) D4 E8 | F8 E8 | F4 (E8 D4 | E8) (E6 D2 | ^C4 E8 F4 | %30
w: vin- cla re\- *|||* is, sol-|ve vin-|cla re\- *|* is, *|* pro- fer|
 E8 ^F8 | (G8 G,6 A,2 | B,2 A,2 D8 ^C4) | D8 z4 C4- | C4 B,4 E4 D4- | D2 C2 F6 E2 D4- | %36
w: lu- men|cae\- * *||cis, ma\-|* la no\- *||
 D4 ^C4) D4 (A,4 | B,4 C8 B,4) | C4 E8 G4- | G4 D4 (E2 D2 C2 B,2 | A,4) A8 G4- | G4 ^F4 G4 E4- | %42
w: * * stra pel\-||le, bo- na|* cun- cta * * *|* po- sce,|* bo- na cun\-|
 E2 E2 (A8 ^G4) | A8 z4 C4 | D8 C4 E4- | E4 (D8 ^C4) | D16 || x16 x14 | x26 | z26 || z24 | %51
w: * cta po\- *|sce, bo-|na cun- cta|* po\- *|sce.|||||
 z14 x2 || z4 F8 E4 | ^F4 G4 (E6 F2 | G4 A8 G4 | F4 E6 B,2 D4- | D4 C4 B,8) | A,4 C8 B,4 | %58
w: |Vir- go|sin- gu- la\- *||||ris, in- ter|
 (C6 D2 E4) D4 | (E2 F2 G2 G,2 C6 D2 | E4 D8 ^C4) | D8 z4 C4- | C4 B,4 D4 C4 | %63
w: o\- * * mnes|mi\- * * * * *||tis, nos|* cul- pis so-|
 (B,4 A,2 G,2 A,2 B,2 C4- | C4) B,4 z4 C4- | C4 E4 C4 D4 | (C2 D2 E6 A,2 D4- | D4 ^C2 B,2 C8) | %68
w: lu\- * * * * *|* tos mi\-|* tes fac et|ca\- * * * *||
 D16 x12 || x24 x4 | z26 || z24 | z14 x10 |[M:3/1] z16 A,8 | D8 (E16 | C8 D8 E8 | F16 E8 | %77
w: stos.|||||Sit|laus De\-|||
 D8 G12 F4 | E8) D8 A8- | A4 G4 F8 E8 | (D16 ^C8 | D16) C8- |[M:3/1] C8 (B,12 C4 | D8 B,8) z8 | %84
w: |* o, sit|* * * laus|De\- *|* o|* Pa\- *|* tri,|
 A,8 E16 | (F16 E8 | D8) E16 | E16 C8 | (D8 E16) | C8 E16 | D8 E16 | (A,8 B,8 C8) | (D16 ^C8 | %93
w: sit laus|De\- *|* o,|De- o|Pa\- *|tri, sum-|mo Chri-|sto * *|de\- *|
 D16 A,8) | A,16 D8- | D8 ^C8 D8 | F8 (F8 E8) | F16 C8 | C12 D4 E8 | (D8 G16 | F8 E16) | D16 D8 | %102
w: |cus, sum\-|* mo Chri-|sto de\- *|cus, Spi-|ri- tu- i|San\- *||cto, Spi-|
 A,12 B,4 C8 | (B,12 G,4 D8) | B,16 G,8 | A,8 B,8 C8 | (C16 B,8) | C8 C8 E8 | C16 B,8 | %109
w: ri- tu- i|San\- * *|cto, Spi-|ri- tu- i|San\- *|cto, tri- bus|ho- nor,|
 C8 B,8 (D8 | C8 B,16) | C24 | C16 E8 | C16 D8 | E16 D8 | ^C16 D8 | (D16 ^C8) | D24 |] %118
w: ho- nor u\-||nus,|Tri- bus|ho- nor|u- nus.|A- men,|A\- *|men.|
V:3
 z8 z4 (d4- | d2 c2 B8) A4 | G8 A8 | (d6 c2 B8) | A4 ^c8 c4 | (d6 c2 B8- | B4 A4 B4 c4 | d4 A4 A8 | %8
w: A\-|* * * ve,|ma- ris|stel\- * *|la, De- i|ma\- * *||* ter al-|
 A8 z4 c4- | c4 B4 d8- | d4 G4 (A4 B4) | c4 c8 B4 | c4 c6 B2 A4) | G8 A8 | z4 E8 G4 | E4 F4 E8 | %16
w: ma, at\-|* que sem\-|* per Vir\- *|go, at- que|sem- per * *|Vir- go,|fe- lix|coe- li por-|
 D16 || D2 A2 B2 G2 A2 B2 c2 d2 c2 B2 A2 G2 A4 | A2 A2 G2 A2 D2 E2 G2 F2 E2 D2 E2 D4 || %19
w: ta.|Su- mens * il- lud * * A\- * * * * ve|Ga- bri\- * * e\- * lis o\- * * * re,|
 F2 E2 G2 A2 A2 D2 E2 F2 E2 D2 C4 | E2 G2 E2 F2 E2 D4 || z8 D8 | A8 B4 G4 | (A4 B4 c4 d4 | G8 d8 | %25
w: Fun- da nos in pa- ce, * * * * *|mu- tans E- vae no- men.|Sol-|ve vin- cla|re\- * * *||
 c4 B4) A8 | z4 d4 B4 c4 | B8 (A6 B2 | c4 B2 A2 B8) | A4 ^c4 c4 d4- | d4 ^c4 d8 | B4 d8 ^c4 | %32
w: * * is,|sol- ve vin-|cla re- *||is, pro- fer lu\-|* men cae-|cis, pro- fer|
 d4 A4 A8 | A8 A8 | G8 (c4 B4) | A8 (_B8 | A8 D8- | D4 E4 F4 G4) | C8 z8 | z4 B8 e4 | c4 d4 e8 | %41
w: lu- men cae-|cis, ma-|la no\- *|stra pel\-|||le,|bo- na|cun- cta po-|
 A8 G8 | A8 E8 | A4 E8 G4- | G4 D4 G4 (c2 B2 | A2 G2 A6 E2 A4) | A16 || %47
w: sce, bo-|na cun-|cta, bo- na|* cun- cta po\- *||sce.|
 D2 A2 B2 G2 G2 A2 B2 c2 d2 c2 B2 A2 G2 A4 | A2 A2 G2 A2 D2 E2 G2 F2 E2 D2 E2 D4 | %49
w: Mon- stra * te es- se * * ma\- * * * * trem:|Su- mat * * per * te pre\- * * * ces,|
 F2 E2 G2 A2 A2 D2 E2 F2 E2 D2 C4 x2 || E2 G2 E2 F2 E2 D4 x10 | z4 d8 ^c4 || d4 B4 (c8 | B4 A4 B8 | %54
w: Qui pro no- bis na- tus, * * * * *|tu- lit es- se tu- us.|Vir- go|sin- gu- la\-||
 A8 G4 F4) | E16 | z4 A8 G4 | (A6 B2 c4 B4 | c4 B4 A8 | (G8 A8) | z4 D8 C4 | E4 E4 F8 | G8) (F8 | %63
w: |ris,|in- ter|o\- * * *|* mnes mi-|tis, *|nos cul-|pis so- lu\-|* tos|
 G8) z4 A4- | A4 c4 A4 B4 | (A6 G2 F4 E2 D2 | A16) | D16 | %68
w: * mi\-|* tes fac et|ca\- * * * *||stos.|
 D2 A2 B2 G2 A2 B2 c2 d2 c2 B2 A2 G2 A4 || A2 A2 G2 A2 D2 E2 G2 F2 E2 D2 E2 D4 x2 | %70
w: Vi- tam * praes- ta * * pu\- * * * * ram,|I- ter * * pa\- * ra- tu\- * * * tum:|
 F2 E2 G2 A2 A2 D2 E2 F2 E2 D2 C4 x2 || E2 G2 E2 F2 E2 D4 x10 |[M:3/1][K:treble-8] z24 | z24 | %74
w: Ut vi- den- tes Ie- sum, * * * * *|sem- per col- lae- te- mur.|||
 z24 | D8 A16 | (B16 G8 | A8 B8) c8 | (d16 c8 | B8) A16 | A8 D8 (G8 |[M:3/1][K:treble-8] A16 G8 | %82
w: |Sit laus|De\- *|* * o|Pa\- *|* tri,|sit laus De\-||
 A8 G8) D8 | D8 G16 | F16 G8- | G8 z8 A8 | A8 G8 (A8- | A8 B16) | A16 G8 | F8 E16 | (F8 G16 | %91
w: * * o,|sit laus|De- o,|* De-|o Pa- tri,||sum- mo|Chri- sto|de\- *|
 F8 E16) | D16 z8 | z8 A8 G8 | A8 E8 (F8- | F8 G16) | F16 A8 | A12 B4 c8 | (B12 A4 B4 c4 | %99
w: |cus,|sum- mo|Chri- sto de\-||cus, Spi-|ri- tu- i|San\- * * *|
 d16 ^c8) | d16 D8 | D12 D4 A8 | (G16 ^F8 | G12 F4 E8 | D16 E8 | F8 G16) | C24- | C16 z8 | G16 A8 | %109
w: |cto, Spi-|ri- tu- i|San\- *||||cto,||Tri- bus|
 A16 ^G8 | A24 | A16 z8 | z8 E8 G8 | E16 F8 | E16 D8- | D8 E16 | D24 | x24 |] %118
w: ho- nor|u-|nus,|Tri- bus|ho- nor|u- nus.|* A-|men.||
V:4
 z8 D,8 | G,4 (G,8 F,4 | E,8) D,8 | (D,8 E,8) | A,,4 A,8 A,4 | D,8 G,4 (G,4- | G,4 F,4 E,8 | %7
w: A-|ve, ma\- *|* ris|stel\- *|la, De- i|ma- ter al\-||
 D,8 A,,8) | D,8 A,8 | G,8 F,4 F,4 | (G,4 F,2 E,2 D,8) | (C,2 D,2 E,2 F,2 G,8) | z16 | z8 A,,8 | %14
w: |ma, at-|que sem- per|Vir\- * * *|go, * * * *||fe-|
 C,8 A,,4 _B,,4 | A,,16 | D,16 || x24 x4 | z26 || z24 | z14 || z16 | z16 | z16 | z16 | z8 A,,8 | %26
w: lix coe- li|por-|ta.|||||||||Sol-|
 D,8 E,4 C,4 | (D,4 E,4 F,8 | E,16) | A,,8 A,8 | A,8 D,8 | (G,6 F,2 E,8) | (D,8 A,,8) | D,8 z8 | %34
w: ve vin- cla|re\- * *||is, pro-|fer lu-|men * *|cae\- *|cis,|
 z16 | z16 | z16 | z16 | z8 E,8 | G,8 E,8 | F,8 E,8 | D,8 z8 | z16 | A,,8 C,8 | B,,8 C,8 | %45
w: ||||bo-|na cun-|cta po-|sce,||bo- na|cun- cta|
 (D,8 A,,8) | D,16 || x16 x14 | x26 | z26 || z24 | z14 x2 || z16 | z16 | z16 | z16 | z16 | z16 | %58
w: po\- *|sce.||||||||||||
 z16 | z16 | z16 | z16 | z16 | z16 | z16 | z16 | z16 | z16 | z16 x12 || z28 | z26 || z24 | %72
w: ||||||||||||||
 z14 x10 |[M:3/1] z24 | z24 | z24 | z24 | z24 | z24 | z24 | z16 A,,8 | D,16 (E,8 | %82
w: ||||||||Sit|laus De\-|
[M:3/1] C,8 D,8 E,8 | F,8 G,16) | F,8 E,16 | (D,16 C,8 | B,,8 A,,8) A,,8 | E,16 F,8 | F,8 E,16 | %89
w: ||o Pa-|tri, *|* * sit|laus De-|o Pa-|
 A,,16 z8 | z24 | z24 | z24 | z8 D,8 ^C,8 | D,16 B,,8 | (A,,16 D,8- | D,8 C,16) | F,,16 F,8 | %98
w: tri,||||sum- mo|Chri- sto|de\- *||cus, Spi-|
 F,16 E,8 | G,16 (G,8- | G,8 A,16) | D,16 z8 | z24 | z24 | z24 | z24 | z24 | z24 | z8 E,8 G,8 | %109
w: ri- tu-|i San\-||cto,|||||||Tri- bus|
 E,16 D,8- | D,8 E,16 | A,,24 | z8 A,,8 C,8 | A,,16 G,,8 | C,16 D,8 | A,,16 _B,,8- | B,,8 A,,16 | %117
w: ho- nor|* u-|nus,|Tri- bus|ho- nor|u- nus.|A- men,|* A-|
 D,24 |] %118
w: men.|

